build/images/SVG/new/bold-baffled-selected.svg

<svg xmlns="http://www.w3.org/2000/svg" width="31.992" height="31.992" viewBox="0 0 31.992 31.992"><path fill="#010101" d="M15.996 0C7.176 0 0 7.176 0 15.996s7.176 15.996 15.996 15.996 15.996-7.176 15.996-15.996S24.816 0 15.996 0zm4.809 8.628c.576-.445 1.172-1.236 1.178-1.244l.801.6c-.027.036-.682.906-1.367 1.436-.691.534-2.101.979-2.259 1.027l-.295-.955c.382-.119 1.477-.506 1.942-.864zM10.01 7.384c.006.008.601.799 1.179 1.244.464.358 1.561.745 1.943.863l-.295.955c-.158-.049-1.569-.493-2.26-1.027-.686-.529-1.341-1.399-1.368-1.436l.801-.599zm-.311 8.503c-1.07 0-1.941-.955-1.941-2.133s.871-2.133 1.941-2.133 1.941.957 1.941 2.133c.001 1.178-.87 2.133-1.941 2.133zm11.051 7.469c-.357.741-1.041.779-5.17.776-4.129.003-4.027-.457-4.383-1.198-.355-.744.799-2.989 5.189-2.989 4.393 0 4.721 2.668 4.364 3.411zm1.545-7.469c-1.072 0-1.941-.955-1.941-2.133s.869-2.133 1.941-2.133c1.07 0 1.94.957 1.94 2.133 0 1.178-.87 2.133-1.94 2.133z"/></svg>

<?xml version="1.0" encoding="utf-8"?>
<!-- Generator: Adobe Illustrator 16.0.0, SVG Export Plug-In . SVG Version: 6.00 Build 0)  -->
<!DOCTYPE svg PUBLIC "-//W3C//DTD SVG 1.1//EN" "http://www.w3.org/Graphics/SVG/1.1/DTD/svg11.dtd">
<svg version="1.1" id="Layer_1" xmlns="http://www.w3.org/2000/svg" xmlns:xlink="http://www.w3.org/1999/xlink" x="0px" y="0px"
	 width="31.992px" height="31.992px" viewBox="0 0 31.992 31.992" enable-background="new 0 0 31.992 31.992" xml:space="preserve">
<path fill="#010101" d="M15.996,0C7.176,0,0,7.176,0,15.996s7.176,15.996,15.996,15.996s15.996-7.176,15.996-15.996
	S24.816,0,15.996,0z M20.805,8.628c0.576-0.445,1.172-1.236,1.178-1.244l0.801,0.6c-0.027,0.036-0.682,0.906-1.367,1.436
	c-0.691,0.534-2.101,0.979-2.259,1.027l-0.295-0.955C19.245,9.373,20.34,8.986,20.805,8.628z M10.01,7.384
	c0.006,0.008,0.601,0.799,1.179,1.244c0.464,0.358,1.561,0.745,1.943,0.863l-0.295,0.955c-0.158-0.049-1.569-0.493-2.26-1.027
	C9.891,8.89,9.236,8.02,9.209,7.983L10.01,7.384z M9.699,15.887c-1.07,0-1.941-0.955-1.941-2.133s0.871-2.133,1.941-2.133
	s1.941,0.957,1.941,2.133C11.641,14.932,10.77,15.887,9.699,15.887z M20.75,23.356c-0.357,0.741-1.041,0.779-5.17,0.776
	c-4.129,0.003-4.027-0.457-4.383-1.198c-0.355-0.744,0.799-2.989,5.189-2.989C20.779,19.945,21.107,22.613,20.75,23.356z
	 M22.295,15.887c-1.072,0-1.941-0.955-1.941-2.133s0.869-2.133,1.941-2.133c1.07,0,1.94,0.957,1.94,2.133
	C24.235,14.932,23.365,15.887,22.295,15.887z"/>
</svg>
